svg/other/stethoscope_fill.svg

<svg xmlns="http://www.w3.org/2000/svg" width="24" height="24" viewBox="0 0 24 24"><g fill="none"><path d="M24,0 L24,24 L0,24 L0,0 L24,0 Z M12.5935,23.2578 L12.5819,23.2595 L12.5109,23.295 L12.4919,23.2987 L12.4767,23.295 L12.4057,23.2595 C12.3958,23.2564 12.387,23.259 12.3821,23.2649 L12.378,23.2758 L12.3609,23.7031 L12.3659,23.7235 L12.3769,23.7357 L12.4805,23.8097 L12.4953,23.8136 L12.5071,23.8097 L12.6107,23.7357 L12.6233,23.7197 L12.6267,23.7031 L12.6096,23.2758 C12.6076,23.2657 12.601,23.2593 12.5935,23.2578 Z M12.8584,23.1453 L12.8445,23.1473 L12.6598,23.2397 L12.6499,23.2499 L12.6472,23.2611 L12.6651,23.6906 L12.6699,23.7034 L12.6784,23.7105 L12.8793,23.8032 C12.8914,23.8069 12.9022,23.803 12.9078,23.7952 L12.9118,23.7812 L12.8777,23.1665 C12.8753,23.1546 12.8674,23.147 12.8584,23.1453 Z M12.143,23.1473 C12.1332,23.1424 12.1222,23.1453 12.1156,23.1526 L12.1099,23.1665 L12.0758,23.7812 C12.0751,23.7927 12.0828,23.8019 12.0926,23.8046 L12.1083,23.8032 L12.3092,23.7105 L12.3186,23.7024 L12.3225,23.6906 L12.3404,23.2611 L12.3372,23.2485 L12.3278,23.2397 L12.143,23.1473 Z"/><path fill="#09244B" d="M8,4 C8,3.44772 7.55228,3 7,3 C6.44772,3 6,3.44772 6,4 C4.34315,4 3,5.34315 3,7 L3,9 C3,11.973 5.16229,14.441 8,14.917 L8,15 C8,18.3137 10.6863,21 14,21 C17.3137,21 20,18.3137 20,15 L20,13.8293 C21.1652,13.4175 22,12.3062 22,11 C22,9.34315 20.6569,8 19,8 C17.3431,8 16,9.34315 16,11 C16,12.3062 16.8348,13.4175 18,13.8293 L18,15 C18,17.2091 16.2091,19 14,19 C11.7909,19 10,17.2091 10,15 L10,14.917 C12.8377,14.441 15,11.973 15,9 L15,7 C15,5.34315 13.6569,4 12,4 C12,3.44772 11.5523,3 11,3 C10.4477,3 10,3.44772 10,4 L10,6 C10,6.55228 10.4477,7 11,7 C11.5523,7 12,6.55228 12,6 C12.5523,6 13,6.44772 13,7 L13,9 C13,11.2091 11.2091,13 9,13 C6.79086,13 5,11.2091 5,9 L5,7 C5,6.44772 5.44772,6 6,6 C6,6.55228 6.44772,7 7,7 C7.55228,7 8,6.55228 8,6 L8,4 Z"/></g></svg>

<svg xmlns="http://www.w3.org/2000/svg" width="24" height="24"><g fill="none"><path d="M24 0v24H0V0zM12.594 23.258l-.012.002-.071.035-.02.004-.014-.004-.071-.036c-.01-.003-.019 0-.024.006l-.004.01-.017.428.005.02.01.013.104.074.015.004.012-.004.104-.074.012-.016.004-.017-.017-.427c-.002-.01-.009-.017-.016-.018m.264-.113-.014.002-.184.093-.01.01-.003.011.018.43.005.012.008.008.201.092c.012.004.023 0 .029-.008l.004-.014-.034-.614c-.003-.012-.01-.02-.02-.022m-.715.002a.023.023 0 0 0-.027.006l-.006.014-.034.614c0 .012.007.02.017.024l.015-.002.201-.093.01-.008.003-.011.018-.43-.003-.012-.01-.01z"/><path fill="#09244B" d="M8 4a1 1 0 0 0-2 0 3 3 0 0 0-3 3v2a6.002 6.002 0 0 0 5 5.917V15a6 6 0 0 0 12 0v-1.17a3.001 3.001 0 1 0-2 0V15a4 4 0 0 1-8 0v-.083A6.002 6.002 0 0 0 15 9V7a3 3 0 0 0-3-3 1 1 0 1 0-2 0v2a1 1 0 1 0 2 0 1 1 0 0 1 1 1v2a4 4 0 0 1-8 0V7a1 1 0 0 1 1-1 1 1 0 0 0 2 0z"/></g></svg>
